images_sukapura_svg/cmd/sc_insertcaptiondialog.svg

<svg viewBox="0 0 16 16" xmlns="http://www.w3.org/2000/svg" xmlns:xlink="http://www.w3.org/1999/xlink"><linearGradient id="a" gradientTransform="translate(32 -5)" gradientUnits="userSpaceOnUse" x1="14" x2="13.79661" y1="22" y2="2.135593"><stop offset="0" stop-color="#0040dd"/><stop offset="1" stop-color="#0a84ff"/></linearGradient><linearGradient id="b" gradientUnits="userSpaceOnUse" x1="1" x2="1" xlink:href="#a" y1="16" y2="14"/><linearGradient id="c" gradientUnits="userSpaceOnUse" x1="10" x2="10" xlink:href="#a" y1="16" y2="14"/><path d="m1 1h14v11h-14z" fill="#fff"/><path d="m0 0v13h16v-13zm1 1h14v11h-14z" fill="#929292"/><circle cx="4.5" cy="4.5" fill="#ffd60a" r="2.005997" stroke="#fc0"/><path d="m1 11.5c.4875945 0 4-2.5 4-2.5l2 1.593356 5-4.593356 2.5 4.5v1z" fill="#32d74b" fill-rule="evenodd" stroke="#28cd41"/><rect fill="url(#b)" height="2" ry="1" width="3" y="14"/><rect fill="url(#c)" height="2" ry=".949153" width="11" x="5" y="14"/></svg>

<?xml version="1.0" encoding="UTF-8" standalone="no"?>
<svg
   xmlns:dc="http://purl.org/dc/elements/1.1/"
   xmlns:cc="http://creativecommons.org/ns#"
   xmlns:rdf="http://www.w3.org/1999/02/22-rdf-syntax-ns#"
   xmlns:svg="http://www.w3.org/2000/svg"
   xmlns="http://www.w3.org/2000/svg"
   xmlns:xlink="http://www.w3.org/1999/xlink"
   xmlns:sodipodi="http://sodipodi.sourceforge.net/DTD/sodipodi-0.dtd"
   xmlns:inkscape="http://www.inkscape.org/namespaces/inkscape"
   viewBox="0 0 16 16"
   version="1.1"
   id="svg14"
   sodipodi:docname="sc_insertcaptiondialog.svg"
   inkscape:version="0.92.3 (2405546, 2018-03-11)"
   inkscape:export-filename="/home/rizmut/Documents/Rizmut/Github/libreoffice-style-sukapura/images_sukapura/cmd/sc_insertcaptiondialog.png"
   inkscape:export-xdpi="96"
   inkscape:export-ydpi="96">
  <metadata
     id="metadata20">
    <rdf:RDF>
      <cc:Work
         rdf:about="">
        <dc:format>image/svg+xml</dc:format>
        <dc:type
           rdf:resource="http://purl.org/dc/dcmitype/StillImage" />
        <dc:title></dc:title>
      </cc:Work>
    </rdf:RDF>
  </metadata>
  <defs
     id="defs18">
    <linearGradient
       gradientTransform="translate(32,-5)"
       id="a-3"
       gradientUnits="userSpaceOnUse"
       x1="14"
       x2="13.79661"
       y1="22"
       y2="2.1355929">
      <stop
         offset="0"
         stop-color="#0040dd"
         id="stop1604" />
      <stop
         offset="1"
         stop-color="#0a84ff"
         id="stop1606" />
    </linearGradient>
    <linearGradient
       inkscape:collect="always"
       xlink:href="#a-3"
       id="linearGradient2295"
       x1="1"
       y1="16"
       x2="1"
       y2="14"
       gradientUnits="userSpaceOnUse" />
    <linearGradient
       inkscape:collect="always"
       xlink:href="#a-3"
       id="linearGradient2297"
       x1="10"
       y1="16"
       x2="10"
       y2="14"
       gradientUnits="userSpaceOnUse" />
  </defs>
  <sodipodi:namedview
     pagecolor="#ffffff"
     bordercolor="#666666"
     borderopacity="1"
     objecttolerance="10"
     gridtolerance="10"
     guidetolerance="10"
     inkscape:pageopacity="0"
     inkscape:pageshadow="2"
     inkscape:window-width="1366"
     inkscape:window-height="685"
     id="namedview16"
     showgrid="true"
     inkscape:zoom="20.85965"
     inkscape:cx="8.3351556"
     inkscape:cy="-1.1352554"
     inkscape:window-x="0"
     inkscape:window-y="0"
     inkscape:window-maximized="1"
     inkscape:current-layer="svg14">
    <inkscape:grid
       type="xygrid"
       id="grid1587"
       spacingx="0.5"
       spacingy="0.5"
       empspacing="2" />
  </sodipodi:namedview>
  <path
     d="M 1,1 H 15 V 12 H 1 Z"
     id="path2"
     inkscape:connector-curvature="0"
     style="fill:#ffffff"
     sodipodi:nodetypes="ccccc" />
  <path
     d="M 0,0 V 13 H 16 V 0 Z M 1,1 H 15 V 12 H 1 Z"
     id="path4"
     style="fill:#929292;fill-opacity:1;stroke:none"
     inkscape:connector-curvature="0"
     sodipodi:nodetypes="cccccccccc" />
  <circle
     style="fill:#ffd60a;stroke:#ffcc00"
     cx="4.5"
     cy="4.5"
     r="2.0059969"
     id="circle1008" />
  <path
     d="M 1,11.5 C 1.4875945,11.5 5,9 5,9 L 7,10.593356 12,6 l 2.5,4.5 v 1 z"
     id="path8"
     style="fill:#32d74b;fill-opacity:1;fill-rule:evenodd;stroke:#28cd41;stroke-opacity:1"
     inkscape:connector-curvature="0"
     sodipodi:nodetypes="ccccccc" />
  <rect
     fill="#4d82b8"
     height="2"
     ry="1"
     width="3"
     y="14"
     id="rect10"
     style="fill-opacity:1;fill:url(#linearGradient2295)" />
  <rect
     height="2"
     ry=".949153"
     width="11"
     x="5"
     y="14"
     id="rect12"
     style="fill-opacity:1;fill:url(#linearGradient2297)"
     fill="#4d82b8" />
</svg>
